src/icons/icon-32-disabled.svg

<svg height="32" viewBox="0 0 32 32" width="32" xmlns="http://www.w3.org/2000/svg"><g fill="none"><circle cx="16" cy="16" fill="#fff" r="16"/><g fill="#0c0c0d" fill-opacity=".8"><path d="m11 10.75c0-.6903559.5596441-1.25 1.25-1.25s1.25.5596441 1.25 1.25v10.5c0 .6903559-.5596441 1.25-1.25 1.25s-1.25-.5596441-1.25-1.25z"/><path d="m18.5 10.75c0-.6903559.5596441-1.25 1.25-1.25s1.25.5596441 1.25 1.25v10.5c0 .6903559-.5596441 1.25-1.25 1.25s-1.25-.5596441-1.25-1.25z"/></g></g></svg>

<?xml version="1.0" encoding="UTF-8"?>
<svg width="32px" height="32px" viewBox="0 0 32 32" version="1.1" xmlns="http://www.w3.org/2000/svg" xmlns:xlink="http://www.w3.org/1999/xlink">
    <!-- Generator: Sketch 52.5 (67469) - http://www.bohemiancoding.com/sketch -->
    <title>icon-32-disabled</title>
    <desc>Created with Sketch.</desc>
    <g id="icon-32-disabled" stroke="none" stroke-width="1" fill="none" fill-rule="evenodd">
        <g id="Disabled" fill-rule="nonzero">
            <circle id="Background" fill="#FFFFFF" cx="16" cy="16" r="16"></circle>
            <path d="M11,10.75 C11,10.0596441 11.5596441,9.5 12.25,9.5 C12.9403559,9.5 13.5,10.0596441 13.5,10.75 L13.5,21.25 C13.5,21.9403559 12.9403559,22.5 12.25,22.5 C11.5596441,22.5 11,21.9403559 11,21.25 L11,10.75 Z" id="Line" fill-opacity="0.8" fill="#0C0C0D"></path>
            <path d="M18.5,10.75 C18.5,10.0596441 19.0596441,9.5 19.75,9.5 C20.4403559,9.5 21,10.0596441 21,10.75 L21,21.25 C21,21.9403559 20.4403559,22.5 19.75,22.5 C19.0596441,22.5 18.5,21.9403559 18.5,21.25 L18.5,10.75 Z" id="Line" fill-opacity="0.8" fill="#0C0C0D"></path>
        </g>
    </g>
</svg>
